public/img/decorations/deco-blob-11.svg

<svg width="78" height="185" viewBox="0 0 78 185" fill="none" xmlns="http://www.w3.org/2000/svg">
<path d="M74.1071 56.3471C74.1071 56.7551 74.1481 57.8661 74.0991 58.9721C73.9451 62.4931 73.7321 66.0111 73.5911 69.5321C73.4521 72.9551 73.4481 76.3611 73.8471 79.7911C74.2881 83.5941 75.0971 87.3161 75.7431 91.0751C76.1511 93.4501 76.2631 95.8771 76.4701 98.2841C77.1591 106.327 77.2511 114.388 77.0991 122.452C77.0561 124.761 76.7871 127.068 76.5521 129.369C76.1401 133.377 75.7811 137.392 75.2021 141.377C74.6961 144.86 73.9271 148.306 73.2571 151.765C72.8741 153.743 72.4871 155.719 72.0561 157.686C71.6441 159.553 71.0481 161.359 70.4021 163.167C69.7321 165.038 69.2871 167.086 69.2461 169.067C69.1251 174.711 65.7951 177.937 61.1391 180.031C58.5841 181.179 55.7931 181.844 53.0591 182.527C50.2271 183.234 47.3361 183.709 44.4671 184.264C43.8771 184.378 43.2541 184.522 42.6701 184.451C38.9771 184 35.2231 183.972 31.6311 182.818C29.8011 182.23 28.0801 181.46 26.4011 180.498C23.6041 178.896 20.5901 177.649 18.0551 175.625C13.8501 172.269 9.9731 168.615 8.1251 163.341C7.9261 162.771 7.68909 162.205 7.56309 161.619C6.72709 157.755 5.0141 154.185 3.8461 150.44C2.5301 146.212 1.1901 141.938 0.518102 137.582C-0.0908981 133.633 0.0361086 129.549 0.631109 125.529C1.10411 122.343 1.64911 119.161 1.51011 115.912C1.47111 115.012 1.5101 114.085 1.6821 113.203C2.1141 111 2.01209 108.816 1.88309 106.588C1.76409 104.5 2.07408 102.377 2.31308 100.283C2.75608 96.3831 3.34811 92.5021 3.34211 88.5561C3.33811 86.6501 3.6271 84.7451 3.7111 82.8361C3.7541 81.8391 3.73109 80.8211 3.57209 79.8391C3.31209 78.2241 3.26508 76.6331 3.59708 75.0311C3.69908 74.5381 3.8041 74.0401 3.8371 73.5391C4.0691 69.9251 4.45009 66.3101 4.46009 62.6951C4.47209 58.2431 4.97211 53.8611 5.53211 49.4591C5.98911 45.8711 6.06109 42.2351 6.36609 38.6261C6.88409 32.5041 7.31709 26.3641 9.58909 20.5521C9.77109 20.0841 9.9111 19.5951 10.0301 19.1071C11.6691 12.3841 15.7081 7.17507 20.5161 2.44807C21.5551 1.42507 22.7891 0.861057 24.2251 0.563057C26.8231 0.0220568 29.3911 -0.0239313 32.0321 0.319069C36.0321 0.839069 40.0221 1.36706 43.9251 2.43006C48.4001 3.64806 52.9001 4.84608 57.1111 6.79908C62.6911 9.38608 66.9451 13.2321 69.0111 19.3461C71.1221 25.5941 72.6281 31.9441 73.3121 38.4761C73.8141 43.2801 74.0461 48.1131 74.3491 52.9361C74.4061 53.8331 74.2301 54.7431 74.1071 56.3471ZM69.0801 102.949C68.9101 103.002 68.7421 103.055 68.5741 103.109C68.6811 103.213 68.7811 103.39 68.8981 103.404C69.0601 103.422 69.2341 103.314 69.4041 103.261C69.2971 103.158 69.1881 103.054 69.0801 102.949ZM9.13111 56.4101L9.33811 56.4451L9.2641 56.2541L9.13111 56.4101Z" fill="black"/>
</svg>

<svg width="78" height="185" fill="none" xmlns="http://www.w3.org/2000/svg"><path d="M74.107 56.347c0 .408.041 1.52-.008 2.625-.154 3.521-.367 7.04-.508 10.56-.139 3.423-.143 6.83.256 10.26.441 3.802 1.25 7.524 1.896 11.283.408 2.375.52 4.802.727 7.21.69 8.042.781 16.103.63 24.167-.044 2.309-.313 4.616-.548 6.917-.412 4.008-.77 8.023-1.35 12.008-.506 3.483-1.275 6.929-1.945 10.388a247.16 247.16 0 01-1.2 5.921c-.413 1.867-1.009 3.673-1.655 5.481-.67 1.871-1.115 3.919-1.156 5.9-.12 5.644-3.45 8.87-8.107 10.964-2.555 1.148-5.346 1.813-8.08 2.496-2.832.707-5.723 1.182-8.592 1.737-.59.114-1.213.258-1.797.187-3.693-.451-7.447-.479-11.039-1.633a27.145 27.145 0 01-5.23-2.32c-2.797-1.602-5.81-2.849-8.346-4.873-4.205-3.356-8.082-7.01-9.93-12.284-.199-.57-.436-1.136-.562-1.722-.836-3.864-2.549-7.434-3.717-11.179-1.316-4.228-2.656-8.502-3.328-12.858-.609-3.949-.482-8.033.113-12.053.473-3.186 1.018-6.368.88-9.617-.04-.9 0-1.827.171-2.709.432-2.203.33-4.387.201-6.615-.119-2.088.191-4.211.43-6.305.443-3.9 1.035-7.78 1.03-11.727-.005-1.906.284-3.81.368-5.72.043-.997.02-2.015-.139-2.997-.26-1.615-.307-3.206.025-4.808.102-.493.207-.99.24-1.492.232-3.614.613-7.229.623-10.844.012-4.452.512-8.834 1.072-13.236.457-3.588.53-7.224.834-10.833.518-6.122.951-12.262 3.223-18.074.182-.468.322-.957.441-1.445 1.64-6.723 5.678-11.932 10.486-16.659 1.04-1.023 2.273-1.587 3.71-1.885 2.597-.54 5.165-.587 7.806-.244 4 .52 7.99 1.048 11.893 2.111C48.4 3.648 52.9 4.846 57.111 6.8c5.58 2.586 9.834 6.432 11.9 12.546 2.111 6.248 3.617 12.598 4.301 19.13.502 4.804.734 9.637 1.037 14.46.057.897-.119 1.807-.242 3.411zM69.08 102.95l-.506.16c.107.104.207.281.324.295.162.018.336-.09.506-.143l-.324-.312zM9.131 56.41l.207.035-.074-.19-.133.155z" fill="#000"/></svg>
